X: 07111
T: SUE TRUMAN'S REEL
C: Bob McQuillen 19 Ma4 89
B: Bob's Note Book 7 #111
%R: reel
Z: 2019 John Chambers <jc:trillian.mit.edu>
M: C
L: 1/8
K: D
AB \
| dfed B2dB | ABAG FABA | FDFA dfag | f2e2 e2AB |\
| dfed BAdB | ABAG F2AB | dfgf ebag | f2d2 d2 :|
|: fg \
| abaf d2fg | a2af bafe | dfed B2de | f2fd BAFE |\
| DFEF ABdf | afed BAdf | afba fded | A2d2 d2 :|
%%begintext align
%% Sue is that great Cape
%% Breton-style clogger from Seattle. We all
%% love to watch her perform when we run
%% into her at one of the dance camps. I sure
%% hope you like dancing to this tune, Sue!
%%endtext

%%sep 1 1 500

%%sep 1 1 500

